korla/apps/scalable/preferences-system-session-services.svg

<!DOCTYPE svg  PUBLIC '-//W3C//DTD SVG 1.1//EN'  'http://www.w3.org/Graphics/SVG/1.1/DTD/svg11.dtd'>
<svg style="clip-rule:evenodd;fill-rule:evenodd;stroke-linecap:round;stroke-linejoin:round;stroke-miterlimit:1.5" version="1.1" viewBox="0 0 48 48" xmlns="http://www.w3.org/2000/svg">
 <rect x="2" y="7.899" width="44" height="33.201" style="fill-opacity:.666667"/>
 <rect x="2" y="6.9" width="44" height="33.201" style="fill:url(#_Linear1)"/>
 <path d="m33.948 19.888c-2.971 1.094-5.234 1.872-7.225 4.335-1.774 2.194-4.336 2.955-7.225 1.508v7.884h-1.446v-19.507c0-0.4 0.324-0.723 0.723-0.723s0.723 0.323 0.723 0.723c1.604 2.332 4.392 2.849 7.225 2.89 4.334 0.063 7.225 2.89 7.225 2.89z" style="fill-opacity:.843137;fill-rule:nonzero;fill:white"/>
 <g transform="matrix(.806604 0 0 1 .915208 .86747)">
  <path d="m5.031 9.137h12.261" style="fill:none;stroke-opacity:.4;stroke-width:3.72px;stroke:white"/>
 </g>
 <defs>
  <linearGradient id="_Linear1" x2="1" gradientTransform="matrix(1.94657e-15,-31.7899,31.7899,1.94657e-15,23.9225,39.5022)" gradientUnits="userSpaceOnUse">
   <stop style="stop-color:rgb(25,124,241)" offset="0"/>
   <stop style="stop-color:rgb(32,188,250)" offset="1"/>
  </linearGradient>
 </defs>
</svg>

<?xml version="1.0" encoding="UTF-8" standalone="no"?>
<!DOCTYPE svg PUBLIC "-//W3C//DTD SVG 1.1//EN" "http://www.w3.org/Graphics/SVG/1.1/DTD/svg11.dtd">
<svg width="100%" height="100%" viewBox="0 0 48 48" version="1.1" xmlns="http://www.w3.org/2000/svg" xmlns:xlink="http://www.w3.org/1999/xlink" xml:space="preserve" xmlns:serif="http://www.serif.com/" style="fill-rule:evenodd;clip-rule:evenodd;stroke-linecap:round;stroke-linejoin:round;stroke-miterlimit:1.5;">
    <rect id="rect15" x="2" y="7.899" width="44" height="33.201" style="fill-opacity:0.666667;"/>
    <rect id="rect17" x="2" y="6.9" width="44" height="33.201" style="fill:url(#_Linear1);"/>
    <path id="path19" d="M33.948,19.888C30.977,20.982 28.714,21.76 26.723,24.223C24.949,26.417 22.387,27.178 19.498,25.731L19.498,33.615L18.052,33.615L18.052,14.108C18.052,13.708 18.376,13.385 18.775,13.385C19.174,13.385 19.498,13.708 19.498,14.108C21.102,16.44 23.89,16.957 26.723,16.998C31.057,17.061 33.948,19.888 33.948,19.888Z" style="fill:white;fill-opacity:0.843137;fill-rule:nonzero;"/>
    <g transform="matrix(0.806604,0,0,1,0.915208,0.86747)">
        <path d="M5.031,9.137L17.292,9.137" style="fill:none;stroke:white;stroke-opacity:0.4;stroke-width:3.72px;"/>
    </g>
    <defs>
        <linearGradient id="_Linear1" x1="0" y1="0" x2="1" y2="0" gradientUnits="userSpaceOnUse" gradientTransform="matrix(1.94657e-15,-31.7899,31.7899,1.94657e-15,23.9225,39.5022)"><stop offset="0" style="stop-color:rgb(25,124,241);stop-opacity:1"/><stop offset="1" style="stop-color:rgb(32,188,250);stop-opacity:1"/></linearGradient>
    </defs>
</svg>
